shader_type canvas_item;

uniform float lod: hint_range(0.0, 4.0) = 1.0;
uniform sampler2D SCREEN_TEXTURE : hint_screen_texture, filter_linear_mipmap;
uniform vec4 tint_color : source_color = vec4(1.0, 1.0, 1.0, 1.0);

void fragment(){
	vec4 color = texture(SCREEN_TEXTURE, SCREEN_UV, lod);
	color.rgb *= tint_color.rgb;
	color.a *= tint_color.a;
	COLOR = color;
}
